Numix/16/status/indicator-keyboard-De-7.svg

<?xml version="1.0" encoding="UTF-8" standalone="no"?>
<svg
   xmlns:dc="http://purl.org/dc/elements/1.1/"
   xmlns:cc="http://creativecommons.org/ns#"
   xmlns:rdf="http://www.w3.org/1999/02/22-rdf-syntax-ns#"
   xmlns:svg="http://www.w3.org/2000/svg"
   xmlns="http://www.w3.org/2000/svg"
   xmlns:sodipodi="http://sodipodi.sourceforge.net/DTD/sodipodi-0.dtd"
   xmlns:inkscape="http://www.inkscape.org/namespaces/inkscape"
   viewBox="0 0 16 16"
   id="svg2"
   version="1.1"
   inkscape:version="0.91 r13725"
   sodipodi:docname="indicator-keyboard-De-7.svg">
  <metadata
     id="metadata14">
    <rdf:RDF>
      <cc:Work
         rdf:about="">
        <dc:format>image/svg+xml</dc:format>
        <dc:type
           rdf:resource="http://purl.org/dc/dcmitype/StillImage" />
      </cc:Work>
    </rdf:RDF>
  </metadata>
  <defs
     id="defs12" />
  <sodipodi:namedview
     pagecolor="#ffffff"
     bordercolor="#666666"
     borderopacity="1"
     objecttolerance="10"
     gridtolerance="10"
     guidetolerance="10"
     inkscape:pageopacity="0"
     inkscape:pageshadow="2"
     inkscape:window-width="640"
     inkscape:window-height="480"
     id="namedview10"
     showgrid="false"
     inkscape:zoom="14.75"
     inkscape:cx="8"
     inkscape:cy="8"
     inkscape:window-x="65"
     inkscape:window-y="24"
     inkscape:window-maximized="0"
     inkscape:current-layer="svg2" />
  <path
     style="fill:#ececec;fill-opacity:1"
     d="M 1.5996094 0 C 0.71320937 2.9605947e-16 0 0.71320937 0 1.5996094 L 0 14.400391 C 2.9605947e-16 15.286791 0.71320937 16 1.5996094 16 L 14.400391 16 C 15.286791 16 16 15.286791 16 14.400391 L 16 1.5996094 C 16 0.71320937 15.286791 0 14.400391 0 L 1.5996094 0 z M 2.8671875 4.8046875 C 3.3711875 4.8046875 3.8339062 4.8719062 4.2539062 5.0039062 C 4.6739063 5.1359063 5.0339844 5.3336562 5.3339844 5.5976562 C 5.6399844 5.8616562 5.8769219 6.1918906 6.0449219 6.5878906 C 6.2129219 6.9838906 6.296875 7.4446562 6.296875 7.9726562 C 6.296875 8.5066563 6.2129219 8.9711875 6.0449219 9.3671875 C 5.8769219 9.7631875 5.6399844 10.093422 5.3339844 10.357422 C 5.0339844 10.621422 4.6739062 10.819172 4.2539062 10.951172 C 3.8339063 11.083172 3.3711875 11.150391 2.8671875 11.150391 C 2.6151875 11.150391 2.3521719 11.135469 2.0761719 11.105469 C 1.8001719 11.081469 1.5576563 11.042281 1.3476562 10.988281 L 1.3476562 4.9765625 C 1.5576563 4.9165625 1.8001719 4.8736094 2.0761719 4.8496094 C 2.3521719 4.8196094 2.6151875 4.8046875 2.8671875 4.8046875 z M 2.9394531 5.3359375 C 2.6154531 5.3359375 2.3785156 5.3452812 2.2285156 5.3632812 C 2.0845156 5.3812812 1.9949844 5.3924375 1.9589844 5.3984375 L 1.9589844 10.556641 C 1.9949844 10.562641 2.0845156 10.573797 2.2285156 10.591797 C 2.3785156 10.609797 2.6154531 10.619141 2.9394531 10.619141 C 3.3894531 10.619141 3.7831406 10.559453 4.1191406 10.439453 C 4.4551406 10.313453 4.7368437 10.136203 4.9648438 9.9082031 C 5.1928437 9.6802031 5.3645156 9.4040781 5.4785156 9.0800781 C 5.5925156 8.7500781 5.6484375 8.3806562 5.6484375 7.9726562 C 5.6484375 7.5646563 5.5925156 7.199 5.4785156 6.875 C 5.3645156 6.551 5.1928438 6.274875 4.9648438 6.046875 C 4.7368438 5.818875 4.4551406 5.6453906 4.1191406 5.5253906 C 3.7831406 5.3993906 3.3894531 5.3359375 2.9394531 5.3359375 z M 9.3769531 6.3359375 C 9.9469533 6.3359375 10.398375 6.5205781 10.734375 6.8925781 C 11.076375 7.2645781 11.248047 7.8373281 11.248047 8.6113281 C 11.248047 8.6593281 11.246234 8.7078594 11.240234 8.7558594 C 11.240234 8.8038594 11.236469 8.848625 11.230469 8.890625 L 7.9628906 8.890625 C 7.9808906 9.460625 8.1227187 9.8990779 8.3867188 10.205078 C 8.6507187 10.511078 9.0704844 10.664062 9.6464844 10.664062 C 9.9644845 10.664062 10.216344 10.634219 10.402344 10.574219 C 10.588344 10.514219 10.722641 10.463875 10.806641 10.421875 L 10.916016 10.925781 C 10.832016 10.973781 10.6715 11.029703 10.4375 11.095703 C 10.2095 11.161703 9.9409064 11.195312 9.6289062 11.195312 C 9.2209063 11.195312 8.8719844 11.135625 8.5839844 11.015625 C 8.2959844 10.895625 8.0590469 10.727719 7.8730469 10.511719 C 7.6870469 10.295719 7.55275 10.040094 7.46875 9.7460938 C 7.38475 9.4460938 7.3417969 9.119625 7.3417969 8.765625 C 7.3417969 8.357625 7.3996719 8.003125 7.5136719 7.703125 C 7.6336719 7.397125 7.7866563 7.1415 7.9726562 6.9375 C 8.1646562 6.7335 8.3810938 6.5842812 8.6210938 6.4882812 C 8.8670938 6.3862812 9.1189531 6.3359375 9.3769531 6.3359375 z M 9.3847656 6.8574219 C 9.1747656 6.8574219 8.9863594 6.8984219 8.8183594 6.9824219 C 8.6563594 7.0664219 8.5127188 7.1802187 8.3867188 7.3242188 C 8.2667187 7.4622188 8.1696563 7.6245469 8.0976562 7.8105469 C 8.0316562 7.9965469 7.9924687 8.1924844 7.9804688 8.3964844 L 10.644531 8.3964844 C 10.632531 7.9104844 10.518734 7.5317188 10.302734 7.2617188 C 10.086734 6.9917187 9.7807656 6.8574219 9.3847656 6.8574219 z M 12.189453 8.8417969 L 14.652344 8.8417969 L 14.652344 9.1816406 C 14.519744 9.3415406 14.374744 9.5551188 14.214844 9.8242188 C 14.058844 10.089419 13.909931 10.391163 13.769531 10.726562 C 13.629131 11.058062 13.505691 11.410756 13.400391 11.785156 C 13.298991 12.159556 13.238244 12.529884 13.214844 12.896484 L 12.810547 12.896484 C 12.833947 12.572784 12.892728 12.229888 12.986328 11.867188 C 13.083828 11.504488 13.201391 11.1518 13.337891 10.8125 C 13.478291 10.4732 13.627209 10.161653 13.787109 9.8769531 C 13.950909 9.5922532 14.109619 9.3649594 14.261719 9.1933594 L 12.189453 9.1933594 L 12.189453 8.8417969 z "
     id="path4" />
</svg>

<svg xmlns="http://www.w3.org/2000/svg" viewBox="0 0 16 16">
 <path d="m 1.6 0 c -0.886 0 -1.6 0.713 -1.6 1.6 l 0 12.801 c 0 0.886 0.713 1.6 1.6 1.6 l 12.801 0 c 0.886 0 1.6 -0.713 1.6 -1.6 l 0 -12.801 c 0 -0.886 -0.713 -1.6 -1.6 -1.6 l -12.801 0 z m 1.268 4.805 c 0.504 0 0.967 0.067 1.387 0.199 c 0.42 0.132 0.78 0.33 1.08 0.594 c 0.306 0.264 0.543 0.594 0.711 0.99 c 0.168 0.396 0.252 0.857 0.252 1.385 c 0 0.534 -0.084 0.999 -0.252 1.395 c -0.168 0.396 -0.405 0.726 -0.711 0.99 c -0.3 0.264 -0.66 0.462 -1.08 0.594 c -0.42 0.132 -0.883 0.199 -1.387 0.199 c -0.252 0 -0.515 -0.015 -0.791 -0.045 c -0.276 -0.024 -0.519 -0.063 -0.729 -0.117 l 0 -6.01 c 0.21 -0.06 0.453 -0.103 0.729 -0.127 c 0.276 -0.03 0.539 -0.045 0.791 -0.045 z m 0.072 0.531 c -0.324 0 -0.561 0.009 -0.711 0.027 c -0.144 0.018 -0.234 0.029 -0.27 0.035 l 0 5.158 c 0.036 0.006 0.126 0.017 0.27 0.035 c 0.15 0.018 0.387 0.027 0.711 0.027 c 0.45 0 0.844 -0.06 1.18 -0.18 c 0.336 -0.126 0.618 -0.303 0.846 -0.531 c 0.228 -0.228 0.4 -0.504 0.514 -0.828 c 0.114 -0.33 0.17 -0.699 0.17 -1.107 c 0 -0.408 -0.056 -0.774 -0.17 -1.098 c -0.114 -0.324 -0.286 -0.6 -0.514 -0.828 c -0.228 -0.228 -0.51 -0.401 -0.846 -0.521 c -0.336 -0.126 -0.73 -0.189 -1.18 -0.189 z m 6.438 1 c 0.57 0 1.021 0.185 1.357 0.557 c 0.342 0.372 0.514 0.945 0.514 1.719 c 0 0.048 -0.002 0.097 -0.008 0.145 c 0 0.048 -0.004 0.093 -0.01 0.135 l -3.268 0 c 0.018 0.57 0.16 1.01 0.424 1.314 c 0.264 0.306 0.684 0.459 1.26 0.459 c 0.318 0 0.57 -0.03 0.756 -0.09 c 0.186 -0.06 0.32 -0.11 0.404 -0.152 l 0.109 0.504 c -0.084 0.048 -0.245 0.104 -0.479 0.17 c -0.228 0.066 -0.497 0.1 -0.809 0.1 c -0.408 0 -0.757 -0.06 -1.045 -0.18 c -0.288 -0.12 -0.525 -0.288 -0.711 -0.504 c -0.186 -0.216 -0.32 -0.472 -0.404 -0.766 c -0.084 -0.3 -0.127 -0.626 -0.127 -0.98 c 0 -0.408 0.058 -0.762 0.172 -1.063 c 0.12 -0.306 0.273 -0.562 0.459 -0.766 c 0.192 -0.204 0.408 -0.353 0.648 -0.449 c 0.246 -0.102 0.498 -0.152 0.756 -0.152 z m 0.008 0.521 c -0.21 0 -0.398 0.041 -0.566 0.125 c -0.162 0.084 -0.306 0.198 -0.432 0.342 c -0.12 0.138 -0.217 0.3 -0.289 0.486 c -0.066 0.186 -0.105 0.382 -0.117 0.586 l 2.664 0 c -0.012 -0.486 -0.126 -0.865 -0.342 -1.135 c -0.216 -0.27 -0.522 -0.404 -0.918 -0.404 z m 2.805 1.984 l 2.463 0 l 0 0.34 c -0.133 0.16 -0.278 0.373 -0.438 0.643 c -0.156 0.265 -0.305 0.567 -0.445 0.902 c -0.14 0.332 -0.264 0.684 -0.369 1.059 c -0.101 0.374 -0.162 0.745 -0.186 1.111 l -0.404 0 c 0.023 -0.324 0.082 -0.667 0.176 -1.029 c 0.098 -0.363 0.215 -0.715 0.352 -1.055 c 0.14 -0.339 0.289 -0.651 0.449 -0.936 c 0.164 -0.285 0.323 -0.512 0.475 -0.684 l -2.072 0 l 0 -0.352 z" style="fill:#ececec;fill-opacity:1"/>
</svg>
